X: 23423
T: Les Pieds Joyeux
R: reel
M: 4/4
K: Dmajor
F3G FEDE|FFdA FGAF|G2GF EFGA|Bgge cdcA|
F3G FEDE|FFdA FGAF|G2GF EFGA|1 BABc d4:|2 BABc d2 f2||
a2f2 g2e2|c3d efed|cABc d2 f2|a2f2 g2e2|
c3d efed|1 cABc d2 f2:|2 cABc d8||

